X:4
T:Polska från Norrbotten
T:Svenska Folkdansar H3 nr 4
O:Norrbotten
B:Traditioner av Svenska Folkdansar Häfte 3, nr 4
R:Polska
Z:Nils L
M:3/4
U:w=wedge
L:1/16
K:Gm
(G4 wB4) (A2>^F2) | G^FGB d2d2 d4 | (G4 wB4) (wA2>^F2) | G^FGB D2D2 D4 |
(G4 wB4) (A2>^F2) | G^FGB d2d2 d4 | d4 f4 (f2=e2) | (=e2>^c2) d4 D4 ::
(d4 wf4) (f2>d2) | BABc d2d2 d4 | (e4 g2>)d2 e2c2 | AGAB c2c2 c4 |
dcde (fe)dc (dc)BA | BABc (dc)BA (BA)G^F | G4 c4 c2A2 | A2>^F2 G4 G,4 :|

